X: 1
T:Allbena. WCl.41
T:Bill The Weaver,aka.. WCl.41
T:Albania Quick March,aka. WCl.41
M:6/8
L:1/8
Q:120
C:Bill The Weaver,Albania Quick March,aka.
S:William Clarke MS,Lincoln,1770.
R:Jig
O:Lincoln
A:England
N:Popular tune in it's day, one of a family of Italian/Adriatic 6/8
N:tunes, as Monferinas etc.(remember the tunes from The
N:Godfather)....also Albina etc.....CGP....
Z:vmp.Barry Callaghan
K:D
d2e fgf|edc d2A|d2e fgf|edc d3::!
dcd Bcd|e2d cBA|dcd Bcd|edc d3::!
a2f a2f|efg f2d|a2f a2f|edc d3::!
A2d A2d|efg f2d|B2d A2d|edc d3:||
